actions/22x22-light/object-rotate-right.svg

<svg viewBox="0 0 22 22" xmlns="http://www.w3.org/2000/svg"><path d="m11 3c-1.08333 0-2.11736.21105-3.10352.63477-.98628.42371-1.83737.99375-2.55273 1.70898-.71523.71523-1.28552 1.56657-1.70898 2.55273-.42359.98616-.63477 2.02006-.63477 3.10352 0 1.0832.21118 2.11736.63477 3.10352.42371.98615.99375 1.83724 1.70898 2.55273.71549.7151 1.56657 1.2854 2.55273 1.70898.98616.42359 2.02019.63477 3.10352.63477 1.19444 0 2.32982-.25249 3.40625-.75586s1.99296-1.21217 2.75-2.12891c.0486-.0694.0718-.14743.0684-.23437-.003-.0868-.0343-.1591-.0898-.21484l-1.42578-1.4375c-.0694-.0625-.15752-.0937-.26172-.0937-.11111.0139-.1897.0556-.23828.125-.50695.65986-1.12916 1.17018-1.86524 1.53125-.7362.36106-1.51728.54296-2.34375.54296-.72213 0-1.41207-.14059-2.06836-.42187-.65616-.28116-1.22392-.66142-1.70312-1.14063-.47921-.4792-.85934-1.04683-1.14063-1.70312-.28116-.65629-.42187-1.34597-.42187-2.06836s.14071-1.41207.42187-2.06836c.28129-.65629.66142-1.22404 1.14063-1.70312.4792-.47921 1.04683-.85934 1.70312-1.14063.65629-.28116 1.3461-.42187 2.06836-.42187.68058 0 1.33389.12458 1.95898.37109.62497.24664 1.17978.59827 1.66602 1.05664l-1.42773 1.4375c-.21532.20841-.26255.44795-.14454.71875.11802.27783.32152.41602.61329.41602h4.66796c.18054 0 .33668-.0653.46875-.19727.13187-.132.19719-.28827.19719-.4688v-4.66602c0-.29164-.13818-.49709-.41602-.61523-.27092-.11801-.51034-.0688-.71875.14648l-1.35546 1.34375c-.74311-.70142-1.59204-1.24537-2.54688-1.63085-.95496-.38549-1.94208-.57813-2.96289-.57813z" fill="#4d4d4d"/></svg>

<svg xmlns="http://www.w3.org/2000/svg" viewBox="0 0 22 22">
  <defs id="defs3051">
    <style type="text/css" id="current-color-scheme">
      .ColorScheme-Text {
        color:#4d4d4d
      }
      </style>
  </defs>
 <path 
     style="fill:currentColor;fill-opacity:1;stroke:none"      
	 class="ColorScheme-Text"
        d="M 11,3 C 9.91667,3 8.88264,3.21105 7.89648,3.63477 6.9102,4.05848 6.05911,4.62852 5.34375,5.34375 4.62852,6.05898 4.05823,6.91032 3.63477,7.89648 3.21118,8.88264 3,9.91654 3,11 c 0,1.0832 0.21118,2.11736 0.63477,3.10352 0.42371,0.98615 0.99375,1.83724 1.70898,2.55273 0.71549,0.7151 1.56657,1.2854 2.55273,1.70898 C 8.88264,18.78882 9.91667,19 11,19 c 1.19444,0 2.32982,-0.25249 3.40625,-0.75586 1.07643,-0.50337 1.99296,-1.21217 2.75,-2.12891 0.0486,-0.0694 0.0718,-0.14743 0.0684,-0.23437 -0.003,-0.0868 -0.0343,-0.1591 -0.0898,-0.21484 l -1.42578,-1.4375 c -0.0694,-0.0625 -0.15752,-0.0937 -0.26172,-0.0937 -0.11111,0.0139 -0.1897,0.0556 -0.23828,0.125 -0.50695,0.65986 -1.12916,1.17018 -1.86524,1.53125 -0.7362,0.36106 -1.51728,0.54296 -2.34375,0.54296 -0.72213,0 -1.41207,-0.14059 -2.06836,-0.42187 C 8.27556,15.631 7.7078,15.25074 7.2286,14.77153 6.74939,14.29233 6.36926,13.7247 6.08797,13.06841 5.80681,12.41212 5.6661,11.72244 5.6661,11.00005 5.6661,10.27766 5.80681,9.58798 6.08797,8.93169 6.36926,8.2754 6.74939,7.70765 7.2286,7.22857 7.7078,6.74936 8.27543,6.36923 8.93172,6.08794 c 0.65629,-0.28116 1.3461,-0.42187 2.06836,-0.42187 0.68058,0 1.33389,0.12458 1.95898,0.37109 0.62497,0.24664 1.17978,0.59827 1.66602,1.05664 l -1.42773,1.4375 c -0.21532,0.20841 -0.26255,0.44795 -0.14454,0.71875 0.11802,0.27783 0.32152,0.41602 0.61329,0.41602 l 4.66796,0 c 0.18054,0 0.33668,-0.0653 0.46875,-0.19727 C 18.93468,9.3368 19,9.18053 19,9 L 19,4.33398 C 19,4.04234 18.86182,3.83689 18.58398,3.71875 18.31306,3.60074 18.07364,3.64995 17.86523,3.86523 L 16.50977,5.20898 C 15.76666,4.50756 14.91773,3.96361 13.96289,3.57813 13.00793,3.19264 12.02081,3 11,3 Z"
     />
</svg>
